X:152
T:What Comes After America
R:double jig
C:2012 LE McCullough 
M:6/8
L:1/8
K:Eminor
||: ~E3 Beg | fed edB | ~A3 DFA | dfg fed | 
~E3 Beg | fed edB | dAF DFA | GFD ~E3 :||: 
~G3 BAG | FAd fed | eBB gBB | efe dBA | 
~G3 BAG | FAG FED | EBe fdf | gfd ~e3 :||
~G3 BAG | FAd fed | eBB gBB | fag fef | 
~g3 eBG | ~f3 dAF | dAF DFA | GFD E2D||
<end>
<start>
